inst/assets/svg/wi-refresh-alt.svg

<?xml version="1.0" encoding="UTF-8"?>
<svg xmlns="http://www.w3.org/2000/svg" xmlns:xlink="http://www.w3.org/1999/xlink" width="30pt" height="30pt" viewBox="0 0 30 30" version="1.1">
<g id="surface826">
<path style=" stroke:none;fill-rule:nonzero;fill:rgb(0%,0%,0%);fill-opacity:1;" d="M 11.78125 14.910156 C 11.78125 15.699219 11.96875 16.421875 12.351563 17.078125 C 12.730469 17.738281 13.25 18.269531 13.921875 18.648438 C 14.589844 19.03125 15.308594 19.230469 16.101563 19.230469 C 16.289063 19.230469 16.449219 19.160156 16.578125 19.011719 C 16.710938 18.871094 16.78125 18.699219 16.78125 18.5 C 16.78125 18.308594 16.710938 18.148438 16.578125 18.019531 C 16.449219 17.890625 16.289063 17.828125 16.089844 17.828125 C 15.28125 17.828125 14.589844 17.550781 14.019531 16.980469 C 13.449219 16.410156 13.171875 15.71875 13.171875 14.910156 C 13.171875 14.128906 13.441406 13.460938 13.96875 12.890625 C 14.5 12.320313 15.128906 12.03125 15.851563 12.03125 L 15.519531 12.351563 C 15.371094 12.5 15.300781 12.660156 15.308594 12.839844 C 15.308594 13.019531 15.378906 13.179688 15.511719 13.320313 C 15.640625 13.460938 15.800781 13.53125 16 13.53125 C 16.199219 13.53125 16.371094 13.460938 16.511719 13.320313 L 18.019531 11.820313 C 18.148438 11.710938 18.21875 11.550781 18.21875 11.308594 C 18.21875 11.089844 18.148438 10.929688 18.019531 10.839844 L 16.511719 9.308594 C 16.378906 9.171875 16.21875 9.101563 16.019531 9.101563 C 15.820313 9.101563 15.660156 9.171875 15.519531 9.308594 C 15.378906 9.449219 15.308594 9.609375 15.308594 9.808594 C 15.308594 10.019531 15.378906 10.191406 15.53125 10.320313 L 15.828125 10.601563 C 14.679688 10.679688 13.71875 11.128906 12.941406 11.949219 C 12.171875 12.769531 11.78125 13.761719 11.78125 14.910156 Z M 11.78125 14.910156 "/>
</g>
</svg>

<?xml version="1.0" encoding="utf-8"?>
<!-- Generator: Adobe Illustrator 22.0.1, SVG Export Plug-In . SVG Version: 6.00 Build 0)  -->
<svg version="1.1" id="Layer_1" xmlns="http://www.w3.org/2000/svg" xmlns:xlink="http://www.w3.org/1999/xlink" x="0px" y="0px"
	 viewBox="0 0 30 30" style="enable-background:new 0 0 30 30;" xml:space="preserve">
<path d="M11.78,14.91c0,0.79,0.19,1.51,0.57,2.17c0.38,0.66,0.9,1.19,1.57,1.57c0.67,0.38,1.39,0.58,2.18,0.58
	c0.19,0,0.35-0.07,0.48-0.22c0.13-0.14,0.2-0.31,0.2-0.51c0-0.19-0.07-0.35-0.2-0.48s-0.29-0.19-0.49-0.19
	c-0.81,0-1.5-0.28-2.07-0.85c-0.57-0.57-0.85-1.26-0.85-2.07c0-0.78,0.27-1.45,0.8-2.02s1.16-0.86,1.88-0.86l-0.33,0.32
	c-0.15,0.15-0.22,0.31-0.21,0.49c0,0.18,0.07,0.34,0.2,0.48c0.13,0.14,0.29,0.21,0.49,0.21c0.2,0,0.37-0.07,0.51-0.21l1.51-1.5
	c0.13-0.11,0.2-0.27,0.2-0.51c0-0.22-0.07-0.38-0.2-0.47l-1.51-1.53c-0.13-0.14-0.29-0.21-0.49-0.21s-0.36,0.07-0.5,0.21
	s-0.21,0.3-0.21,0.5c0,0.21,0.07,0.38,0.22,0.51l0.3,0.28c-1.15,0.08-2.11,0.53-2.89,1.35C12.17,12.77,11.78,13.76,11.78,14.91z"/>
</svg>
